packages/ui/public/icons/subscriptions.svg

<svg width="17" height="18" viewBox="0 0 17 18" fill="none" xmlns="http://www.w3.org/2000/svg">
<path d="M3.45312 17.3325H14C14.835 17.3325 15.4746 17.1104 15.9189 16.666C16.3633 16.2266 16.5854 15.5918 16.5854 14.7617V7.21045C16.5854 6.38037 16.3633 5.74561 15.9189 5.30615C15.4746 4.86182 14.835 4.63965 14 4.63965H3.45312C2.61816 4.63965 1.97852 4.86182 1.53418 5.30615C1.08984 5.74561 0.867676 6.38037 0.867676 7.21045V14.7617C0.867676 15.5918 1.08984 16.2266 1.53418 16.666C1.97852 17.1104 2.61816 17.3325 3.45312 17.3325ZM3.6582 15.4429C3.36523 15.4429 3.14062 15.3672 2.98438 15.2158C2.83301 15.0693 2.75732 14.8398 2.75732 14.5273V7.44482C2.75732 7.13232 2.83301 6.90283 2.98438 6.75635C3.14062 6.60498 3.36523 6.5293 3.6582 6.5293H13.7876C14.0806 6.5293 14.3052 6.60498 14.4614 6.75635C14.6177 6.90283 14.6958 7.13232 14.6958 7.44482V14.5273C14.6958 14.8398 14.6177 15.0693 14.4614 15.2158C14.3052 15.3672 14.0806 15.4429 13.7876 15.4429H3.6582ZM2.59619 3.42383H14.8643C14.8154 3.05273 14.6836 2.76221 14.4688 2.55225C14.2539 2.34229 13.9341 2.2373 13.5093 2.2373H3.95117C3.52148 2.2373 3.19922 2.34229 2.98438 2.55225C2.77441 2.76221 2.64502 3.05273 2.59619 3.42383ZM4.06104 1.16797H13.3994C13.3701 0.816406 13.248 0.547852 13.0332 0.362305C12.8184 0.171875 12.5229 0.0766602 12.147 0.0766602H5.30615C4.93018 0.0766602 4.63477 0.171875 4.41992 0.362305C4.20508 0.547852 4.08545 0.816406 4.06104 1.16797ZM4.5957 16.1167H13.0405C12.9282 15.7065 12.7402 15.333 12.4766 14.9961C12.2178 14.6592 11.9028 14.3662 11.5317 14.1172C11.1606 13.8682 10.7432 13.6777 10.2793 13.5459C9.82031 13.4092 9.33203 13.3408 8.81445 13.3408C8.30176 13.3408 7.81592 13.4092 7.35693 13.5459C6.89795 13.6777 6.48047 13.8682 6.10449 14.1172C5.7334 14.3662 5.41602 14.6592 5.15234 14.9961C4.89355 15.333 4.70801 15.7065 4.5957 16.1167ZM8.81445 12.3887C9.23926 12.3936 9.62012 12.2861 9.95703 12.0664C10.2988 11.8467 10.5674 11.5537 10.7627 11.1875C10.9629 10.8164 11.063 10.3989 11.063 9.93506C11.063 9.50537 10.9629 9.10742 10.7627 8.74121C10.5625 8.375 10.2915 8.08203 9.94971 7.8623C9.61279 7.64258 9.23438 7.53271 8.81445 7.53271C8.39941 7.53271 8.021 7.64258 7.6792 7.8623C7.34229 8.08203 7.07373 8.375 6.87354 8.74121C6.67334 9.10742 6.57324 9.50537 6.57324 9.93506C6.57813 10.3989 6.67822 10.8164 6.87354 11.1875C7.06885 11.5537 7.33496 11.8467 7.67188 12.0664C8.01367 12.2812 8.39453 12.3887 8.81445 12.3887Z" fill="white" fill-opacity="0.8"/>
</svg>

<svg width="17" height="18" fill="none" xmlns="http://www.w3.org/2000/svg"><path d="M3.453 17.332H14c.835 0 1.475-.222 1.919-.666.444-.44.666-1.074.666-1.904V7.21c0-.83-.222-1.464-.666-1.904-.444-.444-1.084-.666-1.919-.666H3.453c-.835 0-1.474.222-1.919.666C1.09 5.746.868 6.38.868 7.21v7.552c0 .83.222 1.465.666 1.904.445.444 1.084.666 1.92.666Zm.205-1.89c-.293 0-.517-.075-.674-.226-.151-.147-.227-.376-.227-.689V7.445c0-.313.076-.542.227-.689.157-.151.381-.227.674-.227h10.13c.293 0 .517.076.673.227.157.147.235.376.235.689v7.082c0 .313-.078.542-.235.689-.156.151-.38.227-.673.227H3.658ZM2.596 3.425h12.268c-.049-.371-.18-.662-.395-.872-.215-.21-.535-.315-.96-.315H3.951c-.43 0-.752.105-.967.315-.21.21-.339.5-.388.872Zm1.465-2.256h9.338c-.029-.352-.151-.62-.366-.806-.215-.19-.51-.285-.886-.285h-6.84c-.377 0-.672.095-.887.285-.215.186-.335.454-.359.806Zm.535 14.949h8.445c-.113-.41-.3-.784-.564-1.12a3.967 3.967 0 0 0-.945-.88 4.377 4.377 0 0 0-1.253-.571 5.107 5.107 0 0 0-1.465-.205 5.08 5.08 0 0 0-1.457.205 4.503 4.503 0 0 0-1.253.571 4.097 4.097 0 0 0-.952.88c-.258.336-.444.71-.556 1.12Zm4.218-3.728c.425.005.806-.103 1.143-.323.342-.22.61-.512.806-.879.2-.37.3-.788.3-1.252 0-.43-.1-.828-.3-1.194-.2-.366-.472-.659-.813-.879a2.033 2.033 0 0 0-1.136-.33c-.415 0-.793.11-1.135.33a2.41 2.41 0 0 0-.805.88c-.2.365-.3.763-.3 1.193.004.464.104.881.3 1.252.195.367.461.66.798.88.342.214.723.322 1.142.322Z" fill="#fff" fill-opacity=".8"/></svg>
